X:84
T:Edwin MacLellan
R:reel
C:Paul S. Cranford
O:Cape Breton Island
S:http://www.cranfordpub.com
D:Brenda Stubbert Music All Around, 2003
B:Brenda Stubbert: the 2nd Collection
Z:psc, (re-formatted,updated 9/17/04)
N:
H:                                                        copyrights Cranford Publications, SOCAN
Q:333
L:1/8
M:C|
K:Fmix
d|c2 AF cFAc|BGEF GedB|cAFG ABcA|Bbag aff:|
||g|afcf AfcA|BGEB GABb|afcf AfcA|Bbag affg|
afcf BfAc|BGEF GedB|cAFc ABcA|Bbag aff|]
